assets/icons/multimedia-filled.svg

<?xml version="1.0" encoding="UTF-8" standalone="no"?>
<svg
   viewBox="0 0 24 24"
   height="24"
   width="24"
   version="1.1"
   id="svg6"
   sodipodi:docname="multimedia-filled.svg"
   inkscape:version="1.2 (1:1.2.1+202207142221+cd75a1ee6d)"
   xmlns:inkscape="http://www.inkscape.org/namespaces/inkscape"
   xmlns:sodipodi="http://sodipodi.sourceforge.net/DTD/sodipodi-0.dtd"
   xmlns="http://www.w3.org/2000/svg"
   xmlns:svg="http://www.w3.org/2000/svg">
  <defs
     id="defs10" />
  <sodipodi:namedview
     id="namedview8"
     pagecolor="#ffffff"
     bordercolor="#666666"
     borderopacity="1.0"
     inkscape:pageshadow="2"
     inkscape:pageopacity="0.0"
     inkscape:pagecheckerboard="0"
     showgrid="true"
     inkscape:snap-page="true"
     inkscape:zoom="19.79899"
     inkscape:cx="19.293914"
     inkscape:cy="4.0406102"
     inkscape:window-width="1920"
     inkscape:window-height="1043"
     inkscape:window-x="0"
     inkscape:window-y="0"
     inkscape:window-maximized="1"
     inkscape:current-layer="svg6"
     inkscape:showpageshadow="2"
     inkscape:deskcolor="#d1d1d1">
    <inkscape:grid
       type="xygrid"
       id="grid1016" />
  </sodipodi:namedview>
  <g
     transform="translate(-643.99666,-153.0556)"
     id="g851">
    <path
       d="m 665.51,160.04 c -0.11528,-0.008 -0.25052,0.002 -0.41015,0.0156 l -7.209,1.125 c -0.81332,0.0828 -0.90176,0.46246 -0.89453,0.93554 v 9.5195 c -0.41338,-0.27155 -0.85577,-0.46484 -1.4453,-0.46484 -0.75911,0 -1.2123,0.29098 -1.4863,0.67383 -0.27403,0.38285 -0.36524,0.86524 -0.36524,1.2383 0,0.44983 0.15511,0.92907 0.48829,1.2949 0.33318,0.36583 0.84551,0.62304 1.582,0.62305 0.83169,0 1.4154,-0.23199 1.7461,-0.68555 0.26039,-0.35711 0.40565,-0.83534 0.45703,-1.4238 0.007,-0.0714 0.0111,-0.14515 0.0156,-0.2207 0.004,-0.0599 0.003,-0.1018 0.004,-0.17188 h 0.004 v -7.7031 c 0.0221,-0.61938 0.58398,-0.71094 0.58398,-0.71094 l 5.8535,-0.91406 c 0.56193,-0.17179 0.5625,0.52343 0.5625,0.52343 v 6.9414 c -0.41338,-0.27156 -0.85577,-0.46484 -1.4453,-0.46485 -0.75911,0 -1.2123,0.29098 -1.4863,0.67383 -0.27403,0.38285 -0.36524,0.86525 -0.36524,1.2383 0,0.44983 0.15511,0.92907 0.48829,1.2949 0.33318,0.36585 0.84551,0.62303 1.582,0.62304 0.83169,0 1.4154,-0.23198 1.7461,-0.68554 0.26039,-0.35711 0.40565,-0.83535 0.45703,-1.4238 0.007,-0.0714 0.0111,-0.14515 0.0156,-0.22071 0.004,-0.0599 0.003,-0.1018 0.004,-0.17187 h 0.004 v -10.568 c 0.0119,-0.68564 -0.14049,-0.86619 -0.48633,-0.89062 z"
       color="#000000"
       color-rendering="auto"
       dominant-baseline="auto"
       fill="#808080"
       fill-rule="evenodd"
       image-rendering="auto"
       shape-rendering="auto"
       solid-color="#000000"
       style="font-variant-ligatures:normal;font-variant-position:normal;font-variant-caps:normal;font-variant-numeric:normal;font-variant-alternates:normal;font-feature-settings:normal;text-indent:0;text-decoration-line:none;text-decoration-style:solid;text-decoration-color:#000000;text-transform:none;text-orientation:mixed;white-space:normal;shape-padding:0;isolation:auto;mix-blend-mode:normal"
       id="path849" />
  </g>
  <path
     id="path1009"
     style="fill:#808080"
     d="M 2 2 L 2 15 L 3 15 L 3 14 L 4 14 L 4 15 L 5 15 L 5 2 L 4 2 L 4 3 L 3 3 L 3 2 L 2 2 z M 6 2 L 6 8 L 12.240234 8 C 12.269937 7.949762 12.30044 7.8997177 12.337891 7.8496094 C 12.510999 7.6179937 12.742059 7.4520754 13 7.3359375 L 13 2 L 6 2 z M 14 2 L 14 7.0976562 L 15 6.9414062 L 15 6 L 16 6 L 16 6.7871094 L 17 6.6308594 L 17 2 L 16 2 L 16 3 L 15 3 L 15 2 L 14 2 z M 3 4 L 4 4 L 4 5 L 3 5 L 3 4 z M 15 4 L 16 4 L 16 5 L 15 5 L 15 4 z M 3 6 L 4 6 L 4 7 L 3 7 L 3 6 z M 3 8 L 4 8 L 4 9 L 3 9 L 3 8 z M 6 9 L 6 15 L 12 15 L 12 9.0761719 C 11.999655 9.0536228 12.002077 9.0243202 12.001953 9 L 6 9 z M 3 10 L 4 10 L 4 11 L 3 11 L 3 10 z M 3 12 L 4 12 L 4 13 L 3 13 L 3 12 z " />
</svg>

<svg height="24" width="24" xmlns="http://www.w3.org/2000/svg"><path d="M21.513 6.984a2.807 2.807 0 0 0-.41.016l-7.21 1.125c-.812.082-.9.462-.894.935v9.52c-.413-.272-.855-.465-1.445-.465-.76 0-1.212.29-1.486.674-.274.382-.366.865-.366 1.238 0 .45.156.929.489 1.295.333.366.845.623 1.582.623.831 0 1.415-.232 1.746-.686.26-.357.406-.835.457-1.423.007-.072.011-.146.016-.221.003-.06.002-.102.003-.172h.004V11.74c.023-.62.584-.711.584-.711l5.854-.914c.562-.172.562.523.562.523v6.942c-.413-.272-.855-.465-1.445-.465-.759 0-1.212.29-1.486.674-.274.383-.365.865-.365 1.238 0 .45.155.929.488 1.295.333.366.845.623 1.582.623.832 0 1.415-.232 1.746-.686.26-.357.406-.835.457-1.423.007-.072.011-.146.016-.221.004-.06.003-.102.004-.172H22V7.875c.012-.686-.14-.866-.487-.89z" color="#000" fill="gray" style="font-variant-ligatures:normal;font-variant-position:normal;font-variant-caps:normal;font-variant-numeric:normal;font-variant-alternates:normal;font-feature-settings:normal;text-indent:0;text-decoration-line:none;text-decoration-style:solid;text-decoration-color:#000;text-transform:none;text-orientation:mixed;white-space:normal;shape-padding:0;isolation:auto;mix-blend-mode:normal"/><path style="fill:gray" d="M2 2v13h1v-1h1v1h1V2H4v1H3V2H2zm4 0v6h6.24c.03-.05.06-.1.098-.15.173-.232.404-.398.662-.514V2H6zm8 0v5.098l1-.157V6h1v.787l1-.156V2h-1v1h-1V2h-1zM3 4h1v1H3V4zm12 0h1v1h-1V4zM3 6h1v1H3V6zm0 2h1v1H3V8zm3 1v6h6V9.076L12.002 9H6zm-3 1h1v1H3v-1zm0 2h1v1H3v-1z"/></svg>
